X:1
T:Fairies' Hornpipe
R:Hornpipe
M:C
L:1/8
K:G
%%printtempo 0
Q:150
D|\
"G"GFGA BGcB|"D"AGAB "G"G2Gc| dgfg edcB| "Am"cedB "D"A2 Bc|
"G"dgfa g2fe| dedc B2AG|"D"AB (3cBA dcAF| GBAF "G"G3 :|
|:B|\
"G"dggf g2fe|dedc B2AG|"Am"AB (3cBA edcB|"D"Add^c d2B=c|
"G"dggf (3gag fe|dedc B2AG|"D"AB (3cBA dcAF|GBAF "G"G2:|
